X:86
T:Saint Mary's
T:Gurteen Cross
R:polka
D:Chieftains 1.
Z:id:hn-polka-86
M:2/4
L:1/8
K:G
GB AB/A/|Gg e/f/g/e/|dB AG/A/|BB/A/ G/F/E/D/|
GB AB/A/|Gg e/f/g/e/|dB AB/A/|1 G2 G (3D/E/F/:|2 G2 G>A||
|:Bd ~g>d|Bd ~g>d|Bd ge|f2 fg|
~a>g e/f/g/e/|dB AG/A/|Be d/B/A/B/|1 G2 G>A:|2 G2 G (3D/E/F/||
